X:1
T:A Tale as Old as Time
T:A Tale as Old as Time
%%score [ 1 2 3 4 ]
L:1/8
Q:1/4=70
M:4/4
K:F
V:1 treble nm="Violin I"
V:2 treble nm="Violin II"
V:3 alto nm="Viola"
V:4 bass nm="Violoncello"
V:1
|: z2 z2 (AB)(GA) | vF4 C4 | z2 z2 (AB)(GA) | F4 c4 :| A8 | B2 f6 | F8 | c8 | F4 fgab | c'4 c'bag | %10
 f4 bagf | c8 | z4 Acef | B4 z4 | z4 Acef | g4 agac | f4 fefa | B4 abga | f8 | c4 FGAB | c4 E3 c | %21
 c4 defd |!mf! e3 E2 E2 c | c4 f4 | A2 c2 e2 c2 | f4 fgaf | g4 B z fc |[K:G] g2 z2 z4 | z4 ABBc | %29
 B3 z z4 |[K:G] z4 ABBc | B4 z4 | z2 z2 BAGF | c4 z4 | G4 z4 | z4 Bdfg | c4 z4 | z4 Bdfg | %38
 =f2 f4 B2 | g4 gfgb | c4 BcAB | d2 d2 BcAB | G4 babd' | G4 GFGB | c4 bc'ab | G4 BcAB | G4 d2 e2 | %47
 d8 | d4 z4 | B2 z D GABd | gabd' g'4 | vg8 |] %52
V:2
|: c2 A2 c2 A2 | f2 d2 f2 d2 | c2 A2 c2 A2 | f2 d2 f2 d2 :| F2 c2 F2 c2 | C2 G2 C2 G2 | %6
 F2 c2 F2 c2 | C2 G2 C2 G2 | F2 c2 F2 c2 | A2 Ac e2 fe | d2 DF BAGF | G8 | F2 c2 F2 c2 | %13
 C2 G2 C2 G2 | F2 c2 F2 c2 | B4 A4 | d2 d2 d2 c2 | FDFB d2 c2 | F2 B2 F2 B2 | c2 A2 z4 | %20
 ECEC ECEC | FDFD FDFD | ECEC ECEC | FDFD FDFD | ECEC ECEC | AFAF AFAF | G4 B2 A2 |[K:G]!f! d8 | %28
 c8 |!f! G8 |[K:G] c8 |!f! G8 | A4 BAGF | G4 cBAG | E4 z2 z2 | B4 B4 | G4 G4 | B4 B4 | c4 d2 d2 | %39
 z4 c2 B2 | A2 A,2 z4 | B2 B2 z4 | z4 BABd | g4 e2 d2 | [Gc]4 BcAB | B2 B4 B2 | B2 B2 B2 B2 | %47
 B2 B4 B2 | B4 d4 | d8 | d8 | vd8 |] %52
V:3
|: F,2 F,C, F,2 F,C, | B,2 B,C, B,2 B,C, | F,2 F,C, F,2 F,C, | B,2 B,C, B,2 B,C, :| F,4 z4 | %5
 z2 C2 DEEF | G4 z4 | z2 C2 D3 E | A,4 z4 | A,2 A,C E2 FE | D2 D,F, B,A,G,F, | E,8 | F,8 | C8 | %14
 A,8 | _E4 F2 A,2 | (D3 F,) B,2 A,2 | G,4 C4 | z4 z4 | z4 F,G,A,B, | C8 | z4 D,E,F,D |!mf! C8 | %23
 z4 F,G,A,B, | C4 CB,A,G, | F,4 F,G,A,F, | G,8 |[K:G] B,4 B,DFG | C4 z4 | z4 B,DFG |[K:G] A4 z4 | %31
 z4 G,A,B,C | D4 BAGF | G,4 CB,A,G, | C4 B,A,A,G, | D,4 D,4 | z4 B,A,A,G, | D,4 B,DFG | %38
 A4 B,A,B,D | G,4 G,F,G,B, | C4 B,CA,B, | G,4 G,A,F,G, | E,4 G,B,F,B, | G,4 G,A,B,D | C4 G,CF,B, | %45
 D4 B,CA,B, | D6 C2 | z4 B,CA,B, | D4 B,4 | G,8- | G,8 | vB8 |] %52
V:4
|: z2 z2 A,B,G,A, | F,4 C,4 | z2 z2 A,B,G,A, | F,4 C4 :| z4 A,,C,E,F, | C,4 z4 | z4 A,,C,E,F, | %7
 G,4 z4 | z4 F,G,A,B, | C4 CB,A,G, | F,4 B,A,G,F, | C,8 | F,,8 | C,8 | F,,8 | C,4 F,2 F,,2 | %16
 B,,3 B,, B,,2 A,,2 | G,,4 C,4 | F,3 C, A,B,G,A, | F,4 C,2 C,2 | A,,4 C,4 | B,,4 F,,4 | A,,4 C,4 | %23
 B,,4 D,4 | A,8 | D,,4 z A,,D,F, | _E,2 E,4 F,,2 |[K:G] G,,3 G,, G,,4 | D,3 D, D,4 | %29
 G,,3 G,, G,,4 |[K:G] D,3 D, D,4 | G,,3 G,, G,,4 | F,,3 F,, F,,4 | C,3 C, C,4 | D,3 D, D,4 | %35
 G,,3 G,, G,,4 | D,4 D,4 | G,,3 G,, G,,4 | D,4 G,,2 G,,2 | C,2 E,2 C,2 B,,2 | A,,2 A,2 G,2 F,2 | %41
 G,4 G,2 F,2 | B,4 B,4 | C4 C2 B,2 | A,4 D,3 z | G,,4 D,3 D, | G,,4 D,3 E, | D,2 z2 B,CA,B, | %48
 G,4 G,4 | G,,2 z D, G,,A,,B,,D, | G,,A,,B,,D, B,,4 | vG,8 |] %52

